X: 28640
T: Music On The Wind
R: jig
M: 6/8
K: Adorian
|:e2d efg|B2A ABd|e2d efg|afd def|
e2d efg|B2A ABd|edB d2B|1 A3 A3:|2 A3 A2e||
~A3 ABd|e2f g2e|a2f g2e|d2B BAG|
~A3 ABd|e2f g2e|afe def|e3 efg|
a2f g2e|d2B BAG|~A3 ABd|egB BAG|
~A3 ABd|e2f g2f|edB d2B|A3 A3||

